X:47
C:Page 24
T:Go to the Devil and Shake Yourself. MBe.47
S:Matthew Betham MS, Towcett Cumbria, 1815
O:England;Cumbria;Towcett
Z:VMP – Hugh Taylor, 2012
M:6/8
L:1/8
Q:3/8=120
R:.Jig
N:NB-The decoration in the first bar has been repeated here and then crossed out.
K:D
Add {d} dcB|ABA AFA|Add d2 e|fdB “Qu in MS”B2 A|
Add “^NB” dcB|ABA AFA|dfd ege|fdd d2:|
|:{fg}afd dcd|BGG G3|{ga}bge ede|cAA A3|
Gdd dcB|ABA AFA|dfd ege|fdd d2:|

